dist/images/close.svg

<svg xmlns="http://www.w3.org/2000/svg" preserveAspectRatio="xMidYMid" width="21.94" height="21.938" viewBox="0 0 21.94 21.938"><defs><style>.cls-1 { fill: #934cc8; fill-rule: evenodd; }</style></defs><path d="M21.93 19.808l-2.12 2.12-8.84-8.838-8.84 8.84-2.12-2.122 8.84-8.84L.01 2.13 2.13.01l8.84 8.838 8.84-8.84 2.12 2.122-8.84 8.84 8.84 8.838z" class="cls-1"/></svg>

<svg xmlns="http://www.w3.org/2000/svg" xmlns:xlink="http://www.w3.org/1999/xlink" preserveAspectRatio="xMidYMid" width="21.94" height="21.938" viewBox="0 0 21.94 21.938">
  <defs>
    <style>
      .cls-1 {
        fill: #934cc8;
        fill-rule: evenodd;
      }
    </style>
  </defs>
  <path d="M21.930,19.808 L19.809,21.929 L10.970,13.090 L2.131,21.929 L0.010,19.808 L8.849,10.969 L0.010,2.130 L2.131,0.009 L10.970,8.848 L19.809,0.009 L21.930,2.130 L13.091,10.969 L21.930,19.808 Z" class="cls-1"/>
</svg>
